assets/images/study/concave-lens.svg

<svg xmlns="http://www.w3.org/2000/svg" width="600" height="300" aria-hidden="false" viewBox="0 0 600 300"><defs><linearGradient id="a" x1="0%" x2="100%" y1="0%" y2="0%"><stop offset="0%" stop-color="#d0e8ff" stop-opacity=".7"/><stop offset="100%" stop-color="#a0c4ff" stop-opacity=".7"/></linearGradient></defs><path fill="#f8f8f8" d="M0 0h600v300H0z"/><text x="300" y="30" fill="#333" font-family="Arial, sans-serif" font-size="20" font-size-adjust=".5" font-weight="bold" text-anchor="middle" text-rendering="optimizeLegibility">Concave Lens (Negative / Minus Lens)</text><path stroke="#999" stroke-dasharray="3,3" d="M50 150h500"/><path fill="url(#a)" stroke="#333" stroke-width="1.5" d="M280 50q-20 50-20 100t20 100h20q20-50 20-100T300 50z"/><path stroke="#a0c4ff" stroke-width=".5" d="M280 75h20m-20 25h20m-20 25h20m-20 25h20m-20 25h20m-20 25h20m-20 25h20"/><path stroke="red" stroke-dasharray="2,1" stroke-width="1.5" d="M170 145v10m220-10v10"/><text x="170" y="175" fill="#c00" font-family="Arial, sans-serif" font-size="14" font-size-adjust=".5" text-anchor="middle" text-rendering="optimizeLegibility">F</text><text x="390" y="175" fill="#c00" font-family="Arial, sans-serif" font-size="14" font-size-adjust=".5" text-anchor="middle" text-rendering="optimizeLegibility">F</text><path stroke="#333" stroke-width="1.5" d="M290 145v10"/><text x="290" y="175" fill="#333" font-family="Arial, sans-serif" font-size="14" font-size-adjust=".5" text-anchor="middle" text-rendering="optimizeLegibility">P</text><path stroke="#fc0" stroke-width="2" d="M50 100h240"/><path fill="none" stroke="#fc0" stroke-width="2" d="m290 100 260-40"/><path stroke="#fc0" stroke-width="2" d="M50 200h240"/><path fill="none" stroke="#fc0" stroke-width="2" d="m290 200 260 40"/><path stroke="#fc0" stroke-width="2" d="M50 150h240m0 0h260"/><path stroke="#fc0" stroke-dasharray="3,2" d="m290 100-120 50m120 50-120-50"/><path stroke="#f45d00" stroke-width="2" d="m50 80 240 70m0 0 260 70m-500 0 240-70m0 0 260-70"/><text x="50" y="90" fill="#333" font-family="Arial, sans-serif" font-size="12" font-size-adjust=".5" text-rendering="optimizeLegibility">Incident Rays</text><text x="450" y="90" fill="#333" font-family="Arial, sans-serif" font-size="12" font-size-adjust=".5" text-rendering="optimizeLegibility">Refracted Rays</text><text x="290" y="215" fill="#333" font-family="Arial, sans-serif" font-size="14" font-size-adjust=".5" text-anchor="middle" text-rendering="optimizeLegibility">Optical Center</text><text x="300" y="270" fill="#333" font-family="Arial, sans-serif" font-size="16" font-size-adjust=".5" text-anchor="middle" text-rendering="optimizeLegibility">Negative Diopter Value (e.g., -2.00D)</text><text x="300" y="50" fill="#555" font-family="Arial, sans-serif" font-size="14" font-size-adjust=".5" text-anchor="middle" text-rendering="optimizeLegibility">Diverges light rays from a virtual focal point</text></svg>

<svg xmlns="http://www.w3.org/2000/svg" width="600" height="300" viewBox="0 0 600 300">
  <title>Concave Lens</title>
  <defs>
    <linearGradient id="lensGradient" x1="0%" y1="0%" x2="100%" y2="0%">
      <stop offset="0%" stop-color="#d0e8ff" stop-opacity="0.7" />
      <stop offset="100%" stop-color="#a0c4ff" stop-opacity="0.7" />
    </linearGradient>
    <filter id="blur" x="-0.04" y="-0.04" width="1.08" height="1.08">
      <feGaussianBlur in="SourceGraphic" stdDeviation="2" />
    </filter>
  </defs>
  
  <!-- Background -->
  <rect width="600" height="300" fill="#f8f8f8" />
  
  <!-- Title -->
  <text x="300" y="30" font-family="Arial, sans-serif" font-size="20" font-weight="bold" text-anchor="middle" fill="#333333">Concave Lens (Negative / Minus Lens)</text>
  
  <!-- Optical Axis -->
  <line x1="50" y1="150" x2="550" y2="150" stroke="#999999" stroke-width="1" stroke-dasharray="3,3" />
  
  <!-- Concave Lens -->
  <path d="M 280,50 Q 260,100 260,150 Q 260,200 280,250 C 290,250 290,250 300,250 Q 320,200 320,150 Q 320,100 300,50 C 290,50 290,50 280,50 Z" fill="url(#lensGradient)" stroke="#333333" stroke-width="1.5" />
  
  <!-- Thinner in the middle visual effect -->
  <path d="M 280,75 L 300,75 M 280,100 L 300,100 M 280,125 L 300,125 M 280,150 L 300,150 M 280,175 L 300,175 M 280,200 L 300,200 M 280,225 L 300,225" stroke="#a0c4ff" stroke-width="0.5" />
  
  <!-- Focal Points (Virtual) -->
  <line x1="170" y1="145" x2="170" y2="155" stroke="#ff0000" stroke-width="1.5" stroke-dasharray="2,1" />
  <line x1="390" y1="145" x2="390" y2="155" stroke="#ff0000" stroke-width="1.5" stroke-dasharray="2,1" />
  <text x="170" y="175" font-family="Arial, sans-serif" font-size="14" text-anchor="middle" fill="#cc0000">F</text>
  <text x="390" y="175" font-family="Arial, sans-serif" font-size="14" text-anchor="middle" fill="#cc0000">F</text>
  
  <!-- Principal Points -->
  <line x1="290" y1="145" x2="290" y2="155" stroke="#333333" stroke-width="1.5" />
  <text x="290" y="175" font-family="Arial, sans-serif" font-size="14" text-anchor="middle" fill="#333333">P</text>
  
  <!-- Light Rays - Parallel to Optical Axis -->
  <line x1="50" y1="100" x2="290" y2="100" stroke="#ffcc00" stroke-width="2" />
  <path d="M 290,100 L 550,60" fill="none" stroke="#ffcc00" stroke-width="2" />
  <line x1="50" y1="200" x2="290" y2="200" stroke="#ffcc00" stroke-width="2" />
  <path d="M 290,200 L 550,240" fill="none" stroke="#ffcc00" stroke-width="2" />
  <line x1="50" y1="150" x2="290" y2="150" stroke="#ffcc00" stroke-width="2" />
  <line x1="290" y1="150" x2="550" y2="150" stroke="#ffcc00" stroke-width="2" />
  
  <!-- Virtual Continuation to Focal Point -->
  <line x1="290" y1="100" x2="170" y2="150" stroke="#ffcc00" stroke-width="1" stroke-dasharray="3,2" />
  <line x1="290" y1="200" x2="170" y2="150" stroke="#ffcc00" stroke-width="1" stroke-dasharray="3,2" />
  
  <!-- Light Rays - Directed at Lens Center -->
  <line x1="50" y1="80" x2="290" y2="150" stroke="#f45d00" stroke-width="2" />
  <line x1="290" y1="150" x2="550" y2="220" stroke="#f45d00" stroke-width="2" />
  <line x1="50" y1="220" x2="290" y2="150" stroke="#f45d00" stroke-width="2" />
  <line x1="290" y1="150" x2="550" y2="80" stroke="#f45d00" stroke-width="2" />
  
  <!-- Labels -->
  <text x="50" y="90" font-family="Arial, sans-serif" font-size="12" fill="#333333">Incident Rays</text>
  <text x="450" y="90" font-family="Arial, sans-serif" font-size="12" fill="#333333">Refracted Rays</text>
  <text x="290" y="215" font-family="Arial, sans-serif" font-size="14" text-anchor="middle" fill="#333333">Optical Center</text>
  
  <!-- Diopter Indicator -->
  <text x="300" y="270" font-family="Arial, sans-serif" font-size="16" text-anchor="middle" fill="#333333">Negative Diopter Value (e.g., -2.00D)</text>
  
  <!-- Effect Description -->
  <text x="300" y="50" font-family="Arial, sans-serif" font-size="14" text-anchor="middle" fill="#555555">Diverges light rays from a virtual focal point</text>
</svg>
